X:1
T:I’ll Live On
T:Thomas J. Laney, 1914
T:I’ll Live On
T:Public Domain
T:Public Domain
C:Thomas J. Laney, 1914
Z:Public Domain
%%score ( 1 2 ) ( 3 4 )
L:1/8
M:4/4
K:Bb
V:1 treble 
V:2 treble 
V:3 bass 
V:4 bass 
V:1
 [DF][EG] | [DB]2 [FB]2 [FB][DF][B,D][DF] | [EG]2 [EG]2 [DF]2 BB | (F2 G2 [Fd])[Fd][Fc][=EB] | %4
w: 1.~’Tis a|sweet and glor- ious tho’t that|comes to me, I’ll live|on, * * yes, I’ll live|
w: 2.~When my|bo- dy’s slum- b’ring in the|cold, cold clay, I’ll live|on, * * yes, I’ll live|
w: 3.~When the|world’s on fire and dark- ness|veils the sun, I’ll live|on, * * yes, I’ll live|
w: 4.~In the|glo- ry- land, with Je- sus|on the throne, I’ll live|on, * * yes, I’ll live|
 [Fc]6 [DF][EG] | [DB]2 [FB]2 [FB][DF][B,D][DF] | [EG]2 [EG]2 [DF]2 BB | (F2 G2 [Bd])[FB][FA][Fc] | %8
w: Je- * sus|saved my soul from death, and|now I’m free, I’ll live|on, * * yes, I’ll live|
w: There * to|sleep in Je- sus till the|judg- ment day, * *||
w: Men * will|cry and to the rocks and|mount- ains run, * *||
w: Thru * e-|ter- nal ag- es sing- ing,|home, sweet home, * *||
 [FB]6 ||"^Refrain" [DF][DF] | (F2 G2 [FB])[DF][DB][FB] | (F2 G2 F2) [Bd][Ac] | %12
w: I’ll|* live|on, * * yes, I’ll live|Thru * * * e-|
w: ||||
w: ||||
w: ||||
 [GB]2 [GB]2 [GB]2 [GB][EG] | (D2 D2 D2) [DF][DF] | (F2 G2 [FB])[DF][DB][FB] | %15
w: ni- ty I’ll live on;|I’ll * * live on,|I’ll * * live on, Thru|
w: |||
w: |||
w: |||
 (F2 G2 F2) [Bd][Ac] | [GB]2 [Bd]2 [Af]2 [Bd][Ac] | (z FDE [FB]2) |] %18
w: ter- * * * ni-|I’ll live on. * *||
w: |||
w: |||
w: |||
V:2
 x2 | x8 | x8 | d4- x4 | x8 | x8 | x8 | d4- x4 | x6 || x2 | B4- x4 | d6 x2 | x8 | F6 x2 | B4- x4 | %15
w: |||on;||||on.|||on.|ter-||yes,|e-|
w: |||on;||||||||||||
w: |||on;||||||||||||
w: |||on;||||||||||||
 d6 x2 | x8 | B4- x2 |] %18
w: ty|||
w: |||
w: |||
w: |||
V:3
 [B,,B,][B,,B,] | [B,,F,]2 [B,,D]2 [B,,D][B,,B,][B,,F,][B,,B,] | [E,B,]2 [E,B,]2 [B,,B,]2 z2 | %3
w: ~ ~|~ ~ ~ ~ ~ ~|~ ~ ~|
 (B,2 [G,B,]2 B,)B,[A,C][G,C] | [F,A,]6 [B,,B,][B,,B,] | %5
w: ~ * * ~ ~ ~|~ ~ ~|
 [B,,F,]2 [B,,D]2 [B,,D][B,,B,][B,,F,][B,,B,] | [E,B,]2 [E,B,]2 [B,,B,]2 z2 | %7
w: ~ ~ ~ ~ ~ ~|I’ll live on|
 B,2 [G,D]2 [F,F][F,D][F,C][F,E] | [B,,D]6 || [B,,B,][B,,B,] | %10
w: ~ ~ ~ ~ ~ ~|and|on, ~|
 [B,,D]2 [B,,E]2 [B,,D][B,,B,][B,,F,][B,,D] | B,2 [G,B,]2 B,2 [B,F][F,E] | %12
w: ~ ~ ~ and on, ~|~ ~ ~ ~ ~|
 [G,D]2 [G,D]2 [E,E]2 [E,E][E,B,] | [B,,B,]2 [B,,B,]2 [B,,B,]2 [B,,B,][B,,B,] | %14
w: and on, ~ ~ ~|and on, ~ ~ ~|
 [B,,D]2 [B,,E]2 [B,,D][B,,B,][B,,F,][B,,D] | B,2 [G,B,]2 B,2 [B,F][F,E] | %16
w: ~ and on, ~ ~ ~|~ ~ ~ ~ ~|
 [G,D]2 [G,B,]2 [F,C]2 [F,F][F,E] | DDB,C [B,,D]2 |] %18
w: live on. * * *||
V:4
 x2 | x8 | x8 | B,2 B,B, x4 | x8 | x8 | x8 | B,2 x6 | x6 || x2 | x8 | B,2 B,2 x4 | x8 | x8 | x8 | %15
w: |||~ ~ ~||||~||||~ ~||||
 B,2 B,2 x4 | x8 | B,,4- x2 |] %18
w: yes, I’ll|||

